!!!COM: Haydn, Franz Joseph
!!!OPR: Symphony in E-flat Major
!!!OTL: Affettuoso 
!!!OMV: 3
!!!SCT: H I:91
!!!SCA: Thematisch-bibliographisches Werkevererzeichnis (A. van Hoboken)
!!!YOR: Dover Edition
!!!EED: Frances Bennion
!!!ENC: Frances Bennion
!!!CDT: 1732/3/31/-1809/5/31/
!!!OCY: Österreich
!!!YEC: Copyright (c) 1994, 2000 Center for Computer Assisted Research in the Humanities
!!!YEM: Rights to all derivative editions reserved.
!!!YEM: Refer to licensing agreement for further details.
!!!YEN: United States of America
**kern	**kern	**kern	**kern	**kern	**kern	**kern	**kern	**kern	**kern	**kern	**kern
*k[b-e-a-]	*k[b-e-a-]	*k[b-e-a-]	*k[b-e-a-]	*k[b-e-a-]	*k[b-e-a-]	*k[b-e-a-]	*k[b-e-a-]	*k[]	*k[]	*k[b-e-a-]	*k[b-e-a-]
*E-:	*E-:	*E-:	*E-:	*E-:	*E-:	*E-:	*E-:	*E-:	*E-:	*E-:	*E-:
*clefF	*clefC3	*clefF4	*clefF4	*clefF	*clefF	*clefF4	*clefF4	*clefF	*clefF	*clefF	*clefF
*M3/4	*M3/4	*M3/4	*M3/4	*M3/4	*M3/4	*M3/4	*M3/4	*M3/4	*M3/4	*M3/4	*M3/4
*tb32	*tb32	*tb32	*tb32	*tb32	*tb32	*tb32	*tb32	*tb32	*tb32	*tb32	*tb32
=0-	=0-	=0-	=0-	=0-	=0-	=0-	=0-	=0-	=0-	=0-	=0-
2r	2r	2r	2r	2r	2r	2r	2r	2r	2r	2r	2r
4b-	4r	4r	4r	4b-	4b-	4r	4r	4r	4r	4b-	4b-
=1	=1	=1	=1	=1	=1	=1	=1	=1	=1	=1	=1
4ee-	2e-	2E-	2E-	2ee-	2g	2E-	2E-	2cc	2e	4ee- 4e-	4ee- 4e-
4e-	.	.	.	.	.	.	.	.	.	4e- 4G	4e- 4G
4ff	4B-	4BB-	4BB-	4ff	4dd	4BB-	4BB-	4dd	4g	4ff 4b- 4d	4ff 4b- 4d
=2	=2	=2	=2	=2	=2	=2	=2	=2	=2	=2	=2
4gg	2e-	2E-	2E-	2gg	2ee-	2E-	2E-	2ee	2cc	4gg 4b- 4e-	4gg 4b- 4e-
4e-	.	.	.	.	.	.	.	.	.	4e- 4G	4e- 4G
32gg	4e-	4E-	4E-	32gg	32gg	4E-	4E-	4ee	4cc	32gg	32gg
32aa-	.	.	.	32aa-	32aa-	.	.	.	.	32aa-	32aa-
8.bb-	.	.	.	8.bb-	8.bb-	.	.	.	.	8.bb-	8.bb-
=3	=3	=3	=3	=3	=3	=3	=3	=3	=3	=3	=3
12aa-	4f	4F	4F	12aa-	12aa-	4F	4F	4ff	4dd	12aa-	12aa-
12gg	.	.	.	12gg	12gg	.	.	.	.	12gg	12gg
12ff	.	.	.	12ff	12ff	.	.	.	.	12ff	12ff
12ee-	4a-	4A-	4A-	12ee-	12ee-	4A-	4A-	4r	4r	12ee-	12ee-
12dd	.	.	.	12dd	12dd	.	.	.	.	12dd	12dd
12cc	.	.	.	12cc	12cc	.	.	.	.	12cc	12cc
12b-	4b-	4B-	4B-	12b-	12b-	4B-	4B-	4dd	4g	12b-	12b-
12cc	.	.	.	12cc	12cc	.	.	.	.	12cc	12cc
12a-	.	.	.	12a-	12a-	.	.	.	.	12a-	12a-
=4	=4	=4	=4	=4	=4	=4	=4	=4	=4	=4	=4
4g	2e-	2E-	2E-	4g	4g	2E-	2E-	4ee	4cc	4g	4g
4r	.	.	.	2r	2r	.	.	2r	2r	4e-	4e-
4b-	4r	4r	4r	.	.	4r	4r	.	.	4B-	4r
=5	=5	=5	=5	=5	=5	=5	=5	=5	=5	=5	=5
2ee-	2.G	2.GG	2.GG	2.r	2.r	2.r	2.r	2.r	2.r	4e-	2.B-
.	.	.	.	.	.	.	.	.	.	4B-	.
4ee	.	.	.	.	.	.	.	.	.	4e	.
=6	=6	=6	=6	=6	=6	=6	=6	=6	=6	=6	=6
2ff	2A-	2AA-	2AA-	2.r	2.r	2.r	2.r	2.r	2.r	4f	2c
.	.	.	.	.	.	.	.	.	.	4c	.
4gg-	4c-	4C-	4C-	.	.	.	.	.	.	4g-	[4e-
=7	=7	=7	=7	=7	=7	=7	=7	=7	=7	=7	=7
4gg	4B-	4BB-	4BB-	2.r	2.r	2.r	2.r	2.r	2.r	4g	4e-]
8bb-	4r	4BB-	4BB-	.	.	.	.	.	.	8b-	4r
8aa-	.	.	.	.	.	.	.	.	.	8a-	.
8ff	8D	4BB-	4BB-	.	.	.	.	.	.	8f	4A-
8dd	8F	.	.	.	.	.	.	.	.	8d	.
=8	=8	=8	=8	=8	=8	=8	=8	=8	=8	=8	=8
4ee-	4E-	4E-	4E-	2r	2r	2r	2r	2r	2r	4e-	4G
4r	4r	4EE-	4EE-	.	.	.	.	.	.	4r	4r
4r	4r	4r	4r	4r	4r	4r	4r	4r	4r	4ff#	4r
=9	=9	=9	=9	=9	=9	=9	=9	=9	=9	=9	=9
2r	2r	2r	2r	2r	2r	2r	2r	2r	2r	4gg	2r
.	.	.	.	.	.	.	.	.	.	8bb-	.
.	.	.	.	.	.	.	.	.	.	8aa-	.
4bb	4G	4GG	4GG	4ff	4dd	4G	4G	4ee	4e	8ff	4G 4b 4d
.	.	.	.	.	.	.	.	.	.	8dd	.
=10	=10	=10	=10	=10	=10	=10	=10	=10	=10	=10	=10
4ccc	4c	4C	4C	4ee-	4cc	4C	4C	4ee	4e	4ee-	4e- 4cc 4G
4r	4e-	4E-	4E-	4r	4r	4E-	4E-	4r	4r	8gg	4r
.	.	.	.	.	.	.	.	.	.	8ee-	.
4aa	4f	4F	4F	4ee-	4cc	4F	4F	4ee	4e	8cc	4e- 4a 4c
.	.	.	.	.	.	.	.	.	.	8a	.
=11	=11	=11	=11	=11	=11	=11	=11	=11	=11	=11	=11
4bb-	4g	4G	4G	4dd	4b-	4G	4G	4ee	4e	4b-	4b- 4B- 4d
4r	4b-	4B-	4B-	4r	4r	4B-	4B-	2r	2r	8dd	4r
.	.	.	.	.	.	.	.	.	.	8b-	.
4gg	4cc	4c	4c	4ee	4b-	4c	4c	.	.	8g	4G 4e
.	.	.	.	.	.	.	.	.	.	8e	.
=12	=12	=12	=12	=12	=12	=12	=12	=12	=12	=12	=12
4ff	4a	4A	4A	4ff	4a	4A	4A	2r	2r	4f	4A
4r	4f	4F	4F	4r	4r	4F	4F	.	.	4r	4r
4bb-	16B-	16BB-	16BB-	4bb-	4dd	16BB-	16BB-	4g	4g	4dd 4bb- 4f	4bb- 4dd 4f
.	16c	16C	16C	.	.	16C	16C	.	.	.	.
.	16d	16D	16D	.	.	16D	16D	.	.	.	.
.	16e-	16E-	16E-	.	.	16E-	16E-	.	.	.	.
=13	=13	=13	=13	=13	=13	=13	=13	=13	=13	=13	=13
4aa	2f	2F	2F	4aa	2ee-	2F	2F	2dd	2dd	4aa 4f 4cc	4f 4aa 4cc
4r	.	.	.	4ff	.	.	.	.	.	4f	4f
4bb-	16B-	16BB-	16BB-	4bb-	4dd	16BB-	16BB-	4g	4g	4bb- 4f 4dd	4dd 4bb- 4f
.	16c	16C	16C	.	.	16C	16C	.	.	.	.
.	16d	16D	16D	.	.	16D	16D	.	.	.	.
.	16e-	16E-	16E-	.	.	16E-	16E-	.	.	.	.
=14	=14	=14	=14	=14	=14	=14	=14	=14	=14	=14	=14
4aa	2f	2F	2F	4aa	2ee-	2F	2F	2dd	2dd	4f 4aa 4cc	4aa 4f 4cc
2r	.	.	.	4ff	.	.	.	.	.	4f	4f
.	4d	4d	4r	4r	4r	4r	4r	4g	4g	12bb-	4f
.	.	.	.	.	.	.	.	.	.	12ddd	.
.	.	.	.	.	.	.	.	.	.	12bb-	.
=15	=15	=15	=15	=15	=15	=15	=15	=15	=15	=15	=15
2.r	2e-	2e-	2.r	2.r	2.r	2.r	2.r	2dd	2dd	4aa	2f
.	.	.	.	.	.	.	.	.	.	4ff	.
.	4d	4d	.	.	.	.	.	4g	4g	12bb-	4f
.	.	.	.	.	.	.	.	.	.	12ddd	.
.	.	.	.	.	.	.	.	.	.	12bb-	.
=16	=16	=16	=16	=16	=16	=16	=16	=16	=16	=16	=16
2r	2e-	2e-	2r	2r	2r	2.r	2.r	2dd	2dd	4aa	2f
.	.	.	.	.	.	.	.	.	.	4ff	.
4ddd	4f	4D	4D	4ff	4b-	.	.	4dd	4dd	12bb-	12bb-
.	.	.	.	.	.	.	.	.	.	12ff	12ff
.	.	.	.	.	.	.	.	.	.	12dd	12dd
=17	=17	=17	=17	=17	=17	=17	=17	=17	=17	=17	=17
2.ccc	2g	2E-	2E-	2gg	2b-	2.r	2.r	2ee	2cc	12cc	12cc
.	.	.	.	.	.	.	.	.	.	12gg	12gg
.	.	.	.	.	.	.	.	.	.	12ff	12ff
.	.	.	.	.	.	.	.	.	.	12ee-	12ee-
.	.	.	.	.	.	.	.	.	.	12dd	12dd
.	.	.	.	.	.	.	.	.	.	12cc	12cc
.	8.c	4F	4F	4ee-	4a	.	.	4dd	4dd	12b-	12b-
.	.	.	.	.	.	.	.	.	.	12a	12a
.	16e-	.	.	.	.	.	.	.	.	12cc	12cc
=18	=18	=18	=18	=18	=18	=18	=18	=18	=18	=18	=18
2bb-	2d	2G	2G	2dd	2b-	2.r	2.r	4g	4g	12b-	12b-
.	.	.	.	.	.	.	.	.	.	12dd	12dd
.	.	.	.	.	.	.	.	.	.	12cc	12cc
.	.	.	.	.	.	.	.	4r	4r	12b-	12b-
.	.	.	.	.	.	.	.	.	.	12a	12a
.	.	.	.	.	.	.	.	.	.	12g	12g
4ddd	4D	4D	4D	4bb-	4ff	.	.	4dd	4dd	12f	12f
.	.	.	.	.	.	.	.	.	.	12e-	12e-
.	.	.	.	.	.	.	.	.	.	12d	12d
=19	=19	=19	=19	=19	=19	=19	=19	=19	=19	=19	=19
2.ccc	2E-	2E-	2E-	2gg	2b-	2.r	2.r	2ee	2cc	12c	12c
.	.	.	.	.	.	.	.	.	.	12g	12g
.	.	.	.	.	.	.	.	.	.	12f	12f
.	.	.	.	.	.	.	.	.	.	12e-	12e-
.	.	.	.	.	.	.	.	.	.	12d	12d
.	.	.	.	.	.	.	.	.	.	12c	12c
.	4F	4F	4F	4a	4ee-	.	.	4dd	4dd	12B-	12B-
.	.	.	.	.	.	.	.	.	.	12A	12A
.	.	.	.	.	.	.	.	.	.	12c	12c
=20	=20	=20	=20	=20	=20	=20	=20	=20	=20	=20	=20
4bb-	2.B-	[2.BB-	[2.BB-	4b-	4dd	2.B-	2.B-	4dd	4g	4B-	4B-
2r	.	.	.	2r	2r	.	.	2r	2r	4r	2r
.	.	.	.	.	.	.	.	.	.	4B-	.
=21	=21	=21	=21	=21	=21	=21	=21	=21	=21	=21	=21
2.r	2.A-	2.BB-_	2.BB-_	2.r	2.r	2.A-	2.A-	2.r	2.r	4c-	2.r
.	.	.	.	.	.	.	.	.	.	4A-	.
.	.	.	.	.	.	.	.	.	.	4d	.
=22	=22	=22	=22	=22	=22	=22	=22	=22	=22	=22	=22
2.r	2G	2.BB-_	2.BB-_	2.r	2.r	2G	2G	2.r	2.r	4e-	2.r
.	.	.	.	.	.	.	.	.	.	4B-	.
.	4G-	.	.	.	.	4G-	4G-	.	.	4e	.
=23	=23	=23	=23	=23	=23	=23	=23	=23	=23	=23	=23
2.r	2F	2.BB-_	2.BB-_	2.r	2.r	2F	2F	2.r	2.r	4f	2r
.	.	.	.	.	.	.	.	.	.	4B-	.
.	4E	.	.	.	.	4E	4E	.	.	4g	4e
=24	=24	=24	=24	=24	=24	=24	=24	=24	=24	=24	=24
2.r	2F	2.BB-_	2.BB-_	2.r	2.r	2F	2F	2.r	2.r	4a-	4f
.	.	.	.	.	.	.	.	.	.	4B-	4B-
.	4F#	.	.	.	.	4F#	4F#	.	.	4a	4f#
=25	=25	=25	=25	=25	=25	=25	=25	=25	=25	=25	=25
2.r	2.G	2.BB-_	2.BB-_	2.r	2.r	2.G	2.G	2.r	2.r	4b-	4g
.	.	.	.	.	.	.	.	.	.	4B-	4B-
.	.	.	.	.	.	.	.	.	.	4b	4g
=26	=26	=26	=26	=26	=26	=26	=26	=26	=26	=26	=26
2.r	2.A-	2.BB-_	2.BB-_	2.r	2.r	4A-	4A-	2.r	2.r	4cc	[2.a-
.	.	.	.	.	.	2r	2r	.	.	8ff	.
.	.	.	.	.	.	.	.	.	.	8ee	.
.	.	.	.	.	.	.	.	.	.	8gg	.
.	.	.	.	.	.	.	.	.	.	8ff	.
=27	=27	=27	=27	=27	=27	=27	=27	=27	=27	=27	=27
2.r	[2.B-	2.BB-_	2.BB-_	2.r	2.r	2.r	2.r	2.r	2.r	8aa-	2.a-_
.	.	.	.	.	.	.	.	.	.	8gg	.
.	.	.	.	.	.	.	.	.	.	8bb-	.
.	.	.	.	.	.	.	.	.	.	8aa-	.
.	.	.	.	.	.	.	.	.	.	8ccc	.
.	.	.	.	.	.	.	.	.	.	8bb-	.
=28	=28	=28	=28	=28	=28	=28	=28	=28	=28	=28	=28
2.r	2.B-]	2.BB-]	2.BB-]	2.r	2.r	2.r	2.r	2.r	2.r	8ddd	2.a-]
.	.	.	.	.	.	.	.	.	.	8ccc	.
.	.	.	.	.	.	.	.	.	.	8bb-	.
.	.	.	.	.	.	.	.	.	.	8aa-	.
.	.	.	.	.	.	.	.	.	.	8gg	.
.	.	.	.	.	.	.	.	.	.	8ff	.
=29	=29	=29	=29	=29	=29	=29	=29	=29	=29	=29	=29
2.r	4F	4BB-	4BB-	2.r	2.r	4f	4f	2.r	2.r	2.ee-	4a-
.	4F	4BB-	4BB-	.	.	4f	4f	.	.	.	4a-
.	4F	4BB-	4BB-	.	.	4f	4f	.	.	.	4a-
=30	=30	=30	=30	=30	=30	=30	=30	=30	=30	=30	=30
2r	4F	4BB-	4BB-	2r	2r	4f	4f	2.r	2.r	4dd	4a-
.	2r	2r	2r	.	.	2r	2r	.	.	4r	4r
4b-	.	.	.	4b-	4b-	.	.	.	.	4b-	4b-
=31	=31	=31	=31	=31	=31	=31	=31	=31	=31	=31	=31
4ee-	2e-	4EE-	4EE-	2ee-	2g	2E-	2E-	2cc	2e	4ee- 4e-	4ee- 4e-
4e-	.	4E-	4E-	.	.	.	.	.	.	4e- 4G	4e- 4G
4ff	4B-	4BB-	4BB-	4ff	4dd	4BB-	4BB-	4dd	4g	4ff 4d 4b-	4b- 4ff 4d
=32	=32	=32	=32	=32	=32	=32	=32	=32	=32	=32	=32
4gg	2e-	2E-	2E-	2gg	2ee-	2E-	2E-	2ee	2cc	4gg 4e- 4b-	4gg 4e- 4b-
4e-	.	.	.	.	.	.	.	.	.	4e- 4G	4e- 4G
32gg	4e-	4E-	4E-	32gg	32gg	4E-	4E-	4ee	4cc	32gg	32gg
32aa-	.	.	.	32aa-	32aa-	.	.	.	.	32aa-	32aa-
8.bb-	.	.	.	8.bb-	8.bb-	.	.	.	.	8.bb-	8.bb-
=33	=33	=33	=33	=33	=33	=33	=33	=33	=33	=33	=33
12aa-	4f	4F	4F	12aa-	12aa-	4F	4F	4ff	4dd	12aa-	12aa-
12gg	.	.	.	12gg	12gg	.	.	.	.	12gg	12gg
12ff	.	.	.	12ff	12ff	.	.	.	.	12ff	12ff
12ee-	4a-	4A-	4A-	12ee-	12ee-	4A-	4A-	4r	4r	12ee-	12ee-
12dd	.	.	.	12dd	12dd	.	.	.	.	12dd	12dd
12cc	.	.	.	12cc	12cc	.	.	.	.	12cc	12cc
12b-	4d	4B-	4B-	12b-	12b-	4B-	4B-	4dd	4g	12b-	12b-
12cc	.	.	.	12cc	12cc	.	.	.	.	12cc	12cc
12a-	.	.	.	12a-	12a-	.	.	.	.	12a-	12a-
=34	=34	=34	=34	=34	=34	=34	=34	=34	=34	=34	=34
4g	4e-	2E-	2E-	4g	4g	2E-	2E-	4ee	4cc	12g	12g
.	.	.	.	.	.	.	.	.	.	12e-	12e-
.	.	.	.	.	.	.	.	.	.	12f	12f
4r	4r	.	.	4r	4r	.	.	4r	4r	12g	12g
.	.	.	.	.	.	.	.	.	.	12a-	12a-
.	.	.	.	.	.	.	.	.	.	12b-	12b-
4eee-	4A-	4AA-	4AA-	4ee-	4cc	4AA-	4AA-	4cc	4cc	12cc	12cc
.	.	.	.	.	.	.	.	.	.	12dd-	12dd-
.	.	.	.	.	.	.	.	.	.	12ee-	12ee-
=35	=35	=35	=35	=35	=35	=35	=35	=35	=35	=35	=35
12ddd-	4B-	4BB-	4BB-	4dd-	4b-	4BB-	4BB-	4cc	4cc	12dd-	12dd-
12ccc	.	.	.	.	.	.	.	.	.	12cc	12cc
12bb-	.	.	.	.	.	.	.	.	.	12b-	12b-
12aa-	4d-	4D-	4D-	4r	4r	4D-	4D-	4r	4r	12a-	12a-
12gg	.	.	.	.	.	.	.	.	.	12g	12g
12ff	.	.	.	.	.	.	.	.	.	12f	12f
12ee-	4e-	4E-	4E-	4b-	4g	4E-	4E-	4cc	4cc	12e-	12e-
12ff	.	.	.	.	.	.	.	.	.	12f	12f
12dd-	.	.	.	.	.	.	.	.	.	12d-	12d-
=36	=36	=36	=36	=36	=36	=36	=36	=36	=36	=36	=36
4cc	2e-	4AA-	4AA-	4cc	4a-	4AA-	4AA-	4cc	4cc	12c	12c
.	.	.	.	.	.	.	.	.	.	12e-	12e-
.	.	.	.	.	.	.	.	.	.	12a-	12a-
12ccc	.	4A-	4A-	12ccc	2r	4A-	4A-	2r	2r	12cc	12cc
12bb-	.	.	.	12bb-	.	.	.	.	.	12b-	12b-
12aa-	.	.	.	12aa-	.	.	.	.	.	12a-	12a-
12gg	4r	4A-	4A-	12gg	.	4A-	4A-	.	.	12g	12g
12ff	.	.	.	12ff	.	.	.	.	.	12f	12f
12ee-	.	.	.	12ee-	.	.	.	.	.	12e-	12e-
=37	=37	=37	=37	=37	=37	=37	=37	=37	=37	=37	=37
2dd	[2.B-	2.A-	2.A-	2.dd	2f	2.A-	2.A-	2.dd	2.g	12d	12d
.	.	.	.	.	.	.	.	.	.	12f	12f
.	.	.	.	.	.	.	.	.	.	12b-	12b-
.	.	.	.	.	.	.	.	.	.	12dd	12dd
.	.	.	.	.	.	.	.	.	.	12ff	12ff
.	.	.	.	.	.	.	.	.	.	12bb-	12bb-
4bb-	.	.	.	.	4f	.	.	.	.	12aa-	12aa-
.	.	.	.	.	.	.	.	.	.	12gg	12gg
.	.	.	.	.	.	.	.	.	.	12ff	12ff
=38	=38	=38	=38	=38	=38	=38	=38	=38	=38	=38	=38
4ee-	4B-]	4G	4G	4ee-	4g	4G	4G	4ee	4cc	4ee-	4ee-
2r	2r	2r	2r	4r	2r	2r	2r	2r	2r	4r	2r
.	.	.	.	4b	.	.	.	.	.	4b	.
=39	=39	=39	=39	=39	=39	=39	=39	=39	=39	=39	=39
2.r	2.r	4A-	4A-	4cc	2r	4A-	4A-	2.r	2.r	4cc	2r
.	.	2r	2r	4r	.	2r	2r	.	.	4f	.
.	.	.	.	4dd	4f	.	.	.	.	4dd	4f
=40	=40	=40	=40	=40	=40	=40	=40	=40	=40	=40	=40
2.r	2.r	4A	4A	4ee-	4g-	4A	4A	2.r	2.r	4ee-	4g-
.	.	2r	2r	4r	4r	2r	2r	.	.	4e-	4r
.	.	.	.	4aa	4ff#	.	.	.	.	4aa	4ff#
=41	=41	=41	=41	=41	=41	=41	=41	=41	=41	=41	=41
4r	2r	4B-	4B-	4bb-	4gg	4B-	4B-	4r	4r	4bb-	4gg
4eee-	.	4r	4r	4gg	4ee-	4r	4r	4ee	4cc	4gg	4ee-
4ddd	4A- 4F	4BB-	4BB-	4ff	4dd	4BB-	4BB-	4dd	4g	4dd 4f	4dd 4f
=42	=42	=42	=42	=42	=42	=42	=42	=42	=42	=42	=42
4eee-	4G 4E-	4E-	4E-	4ee-	4ee-	4E-	4E-	4cc	4e	4ee- 4G 4e-	4ee- 4e- 4G
4r	4r	4r	4r	4r	4r	4r	4r	4r	4r	4r	4r
4r	4r	4r	4r	4r	4r	4r	4r	4r	4r	4b-	4r
=43	=43	=43	=43	=43	=43	=43	=43	=43	=43	=43	=43
2.r	4r	4E-	4E-	2.r	2.r	4.B-	2.r	4r	4r	4.b-	4r
.	4E-	2r	2r	.	.	.	.	4cc	4e	.	4e- 4G
.	.	.	.	.	.	8e-	.	.	.	8ee-	.
.	4E-	.	.	.	.	8g	.	4cc	4e	8gg	4e- 4G
.	.	.	.	.	.	8e-	.	.	.	8ee-	.
=44	=44	=44	=44	=44	=44	=44	=44	=44	=44	=44	=44
2.r	4r	4E-	4E-	2.r	2.r	4B-	2.r	4r	4r	4b-	4r
.	4E-	2r	2r	.	.	4G	.	4cc	4e	4g	4G 4e-
.	4E-	.	.	.	.	4E-	.	4cc	4e	4e-	4e- 4G
=45	=45	=45	=45	=45	=45	=45	=45	=45	=45	=45	=45
2.r	4r	4BB-	4BB-	2.r	2.r	8D	2.r	4r	4r	8d	4r
.	.	.	.	.	.	8E-	.	.	.	8e-	.
.	4F	2r	2r	.	.	8F	.	4dd	4g	8f	4d 4A-
.	.	.	.	.	.	8G	.	.	.	8g	.
.	4F	.	.	.	.	8A-	.	4dd	4g	8a-	4A- 4d
.	.	.	.	.	.	8B-	.	.	.	8b-	.
=46	=46	=46	=46	=46	=46	=46	=46	=46	=46	=46	=46
2.r	4r	4BB-	4BB-	2.r	2.r	2c	2.r	4r	4r	2cc	4r
.	4F	2r	2r	.	.	.	.	4dd	4g	.	4A- 4d
.	4F	.	.	.	.	8B-	.	4dd	4g	8b-	4A- 4d
.	.	.	.	.	.	8A-	.	.	.	8a-	.
=47	=47	=47	=47	=47	=47	=47	=47	=47	=47	=47	=47
2.r	4r	4E-	4E-	2.r	2.r	8G	2.r	4r	4r	8g	4r
.	.	.	.	.	.	8A-	.	.	.	8a-	.
.	4E-	2r	2r	.	.	8B-	.	4ee	4cc	8b-	4e- 4G
.	.	.	.	.	.	8c	.	.	.	8cc	.
.	4E-	.	.	.	.	8d	.	4ee	4cc	8dd	4G 4e-
.	.	.	.	.	.	8e-	.	.	.	8ee-	.
=48	=48	=48	=48	=48	=48	=48	=48	=48	=48	=48	=48
2.r	4r	4AA-	4AA-	2.r	2.r	8B	2.r	4r	4r	8b	4r
.	.	.	.	.	.	8c	.	.	.	8cc	.
.	4c	2r	2r	.	.	8G	.	4ff	4dd	8g	4A- 4f
.	.	.	.	.	.	8A-	.	.	.	8a-	.
.	4c	.	.	.	.	8E	.	4ff	4dd	8e	4A- 4f
.	.	.	.	.	.	8F	.	.	.	8f	.
=49	=49	=49	=49	=49	=49	=49	=49	=49	=49	=49	=49
2.r	4r	4BB-	4BB-	2.r	2.r	2BB-	2.r	4r	4r	2B-	4r
.	4F	2r	2r	.	.	.	.	4dd	4g	.	4d 4A-
.	4F	.	.	.	.	8C	.	4dd	4g	8c	4A- 4d
.	.	.	.	.	.	8D	.	.	.	8d	.
=50	=50	=50	=50	=50	=50	=50	=50	=50	=50	=50	=50
2r	4E-	4E-	4E-	2r	2r	4E-	2r	4cc	4e	4e-	4e- 4G
.	4r	4r	4r	.	.	4r	.	4r	4r	4r	4r
4r	4r	4r	4r	4r	4r	4F	4r	4r	4r	4f	4r
=51	=51	=51	=51	=51	=51	=51	=51	=51	=51	=51	=51
2.r	4r	4A-	4A-	2.r	2.r	2F	2.r	2r	2r	2f	4r
.	4A-	2r	2r	.	.	.	.	.	.	.	4d 4B-
.	4A-	.	.	.	.	8G	.	[4gg	[4g	8g	4B- 4d
.	.	.	.	.	.	8A-	.	.	.	8a-	.
=52	=52	=52	=52	=52	=52	=52	=52	=52	=52	=52	=52
2.r	4r	4G	4G	2.r	2.r	4B-	2.r	4gg]	4g]	4b-	4r
.	4G	2r	2r	.	.	8A-	.	4cc	4c	8a-	4B- 4e-
.	.	.	.	.	.	8G	.	.	.	8g	.
.	4G	.	.	.	.	8F	.	4r	4r	8f	4B- 4e-
.	.	.	.	.	.	8E-	.	.	.	8e-	.
=53	=53	=53	=53	=53	=53	=53	=53	=53	=53	=53	=53
2.r	4r	4A-	4A-	2.r	2.r	2F	2.r	2r	2r	2f	4r
.	4A-	2r	2r	.	.	.	.	.	.	.	4d 4B-
.	4A-	.	.	.	.	8G	.	[4gg	[4g	8g	4B- 4d
.	.	.	.	.	.	8A-	.	.	.	8a-	.
=54	=54	=54	=54	=54	=54	=54	=54	=54	=54	=54	=54
2.r	4r	4G	4G	2.r	2.r	8c	2.r	4gg]	4g]	8cc	4r
.	.	.	.	.	.	8B-	.	.	.	8b-	.
.	4G	2r	2r	.	.	8e-	.	4cc	4c	8ee-	4B- 4e-
.	.	.	.	.	.	8d	.	.	.	8dd	.
.	4G	.	.	.	.	8f	.	4r	4r	8ff	4B- 4e-
.	.	.	.	.	.	8e-	.	.	.	8ee-	.
=55	=55	=55	=55	=55	=55	=55	=55	=55	=55	=55	=55
2.r	4r	4E-	4E-	2r	2.r	8g	2.r	2.r	2.r	8gg	4r
.	.	.	.	.	.	8e-	.	.	.	8ee-	.
.	4e-	4r	4r	.	.	8d	.	.	.	8dd	4e- 4G
.	.	.	.	.	.	8c	.	.	.	8cc	.
.	4c	4F	4F	[4ff	.	8B-	.	.	.	8b-	4A 4e-
.	.	.	.	.	.	8A	.	.	.	8a	.
=56	=56	=56	=56	=56	=56	=56	=56	=56	=56	=56	=56
2.r	4r	4BB-	4BB-	4ff]	2.r	8B-	2.r	2.r	2.r	8b-	4r
.	.	.	.	.	.	8d	.	.	.	8dd	.
.	4B-	4r	4r	4b-	.	8f	.	.	.	8ff	4d 4B-
.	.	.	.	.	.	8d	.	.	.	8dd	.
.	4c	4F	4F	[4ff	.	8e-	.	.	.	8ee-	4e- 4A
.	.	.	.	.	.	8A	.	.	.	8a	.
=57	=57	=57	=57	=57	=57	=57	=57	=57	=57	=57	=57
2.r	4r	4BB-	4BB-	4ff]	2.r	8B-	2.r	2.r	2.r	8b-	4r
.	.	.	.	.	.	8d	.	.	.	8dd	.
.	4B-	4r	4r	4b-	.	8f	.	.	.	8ff	4d 4B-
.	.	.	.	.	.	8d	.	.	.	8dd	.
.	4c	4F	4F	[4ff	.	8e-	.	.	.	8ee-	4A 4e-
.	.	.	.	.	.	8A	.	.	.	8a	.
=58	=58	=58	=58	=58	=58	=58	=58	=58	=58	=58	=58
2.r	4B-	4BB-	4BB-	4ff]	2.r	4B-	2.r	2.r	2.r	4b-	4B- 4d
.	4B-	2r	2r	4b-	.	4B-	.	.	.	4b-	4B- 4d
.	4A- 4F	.	.	4r	.	4B-	.	.	.	4b-	4B- 4d
=59	=59	=59	=59	=59	=59	=59	=59	=59	=59	=59	=59
2r	4r	4E-	4E-	2.r	2.r	4.B-	2.r	4r	4r	4.b-	4r
.	4E- 4G	2r	2r	.	.	.	.	4cc	4e	.	4e- 4G
.	.	.	.	.	.	8e-	.	.	.	8ee-	.
4b-	4G 4E-	.	.	.	.	8g	.	4cc	4e	8gg	4e- 4G
.	.	.	.	.	.	8e-	.	.	.	8ee-	.
=60	=60	=60	=60	=60	=60	=60	=60	=60	=60	=60	=60
4.b-	4r	4E-	4E-	2.r	2.r	4B-	2.r	4r	4r	4b-	4r
.	4E-	2r	2r	.	.	4G	.	4cc	4e	4g	4G 4e-
8ee-	.	.	.	.	.	.	.	.	.	.	.
8gg	4E-	.	.	.	.	4E-	.	4cc	4e	4e-	4G 4e-
8ee-	.	.	.	.	.	.	.	.	.	.	.
=61	=61	=61	=61	=61	=61	=61	=61	=61	=61	=61	=61
4.aa-	4r	4BB-	4BB-	2.r	2.r	8D	2.r	4r	4r	8d	4r
.	.	.	.	.	.	8E-	.	.	.	8e-	.
.	4F	2r	2r	.	.	8F	.	4dd	4g	8f	4d 4A-
8gg	.	.	.	.	.	8G	.	.	.	8g	.
8ff	4F	.	.	.	.	8A-	.	4dd	4g	8a-	4A- 4d
8ee-	.	.	.	.	.	8B-	.	.	.	8b-	.
=62	=62	=62	=62	=62	=62	=62	=62	=62	=62	=62	=62
8dd	4r	4BB-	4BB-	2.r	2.r	2c	2.r	4r	4r	2cc	4r
8ff	.	.	.	.	.	.	.	.	.	.	.
8aa-	4F	2r	2r	.	.	.	.	4dd	4g	.	4d 4A-
8bb-	.	.	.	.	.	.	.	.	.	.	.
8ccc	4F	.	.	.	.	8B-	.	4dd	4g	8b-	4A- 4d
8ddd	.	.	.	.	.	8A-	.	.	.	8a-	.
=63	=63	=63	=63	=63	=63	=63	=63	=63	=63	=63	=63
8eee-	4r	4E-	4E-	2.r	2.r	8G	2.r	4r	4r	8g	4r
8ddd	.	.	.	.	.	8A-	.	.	.	8a-	.
8ccc	4E-	2r	2r	.	.	8B-	.	4ee	4cc	8b-	4e- 4G
8bb-	.	.	.	.	.	8c	.	.	.	8cc	.
8aa-	4E-	.	.	.	.	8d	.	4ee	4cc	8dd	4e- 4G
8gg	.	.	.	.	.	8e-	.	.	.	8ee-	.
=64	=64	=64	=64	=64	=64	=64	=64	=64	=64	=64	=64
8bb	4r	4AA-	4AA-	2.r	2.r	8B	2.r	4r	4r	8b	4r
8ccc	.	.	.	.	.	8c	.	.	.	8cc	.
8gg	4A-	2r	2r	.	.	8G	.	4ff	4dd	8g	4A- 4f
8aa-	.	.	.	.	.	8A-	.	.	.	8a-	.
8ee	4A-	.	.	.	.	8E	.	4ff	4dd	8e	4A- 4f
8ff	.	.	.	.	.	8F	.	.	.	8f	.
=65	=65	=65	=65	=65	=65	=65	=65	=65	=65	=65	=65
2b-	4r	4BB-	4BB-	2.r	2.r	2BB-	2.r	4r	4r	2B-	4r
.	4F	2r	2r	.	.	.	.	4dd	4g	.	4A- 4d
8cc	4F	.	.	.	.	8C	.	4dd	4g	8c	4A- 4d
8dd	.	.	.	.	.	8D	.	.	.	8d	.
=66	=66	=66	=66	=66	=66	=66	=66	=66	=66	=66	=66
4ee-	4E-	4E-	4E-	2.r	2.r	4E-	2.r	4cc	4e	4e-	4G 4e-
2r	2r	2r	2r	.	.	2r	.	2r	2r	2r	2r
==	==	==	==	==	==	==	==	==	==	==	==
*-	*-	*-	*-	*-	*-	*-	*-	*-	*-	*-	*-
!!!RWG1: This file contains only pitch and duration data.
!!!RWG2: Transposing instruments are not transposed.
!!!RWG3: Spines may have incompatible meters.
!!!RWG4: Durations of rests and tied notes may be interpreted.
!!!RWG: Key is interpreted using the Humdrum key tool.
!!!AFT: stage1
!!!END: 1997/04/15
!!format changes:
!!content changes:
!!public access: complete
!!!KEY: 701198967
!!!EMD: Converted from MuseData to Humdrum Dec 16, 2000, by Andreas Kornstaedt using muse2kern.
